;generated by ffslicer 1.30.3 05/08/22 01:08:27
;right_extruder_material: PLA
;layer_height: 0.2
;perimeter_shells: 2
;top_solid_layers: 4
;bottom_solid_layers: 3
;fill_density: 15%
;fill_pattern: hexagon
;base_print_speed: 45
;travel_speed: 80
;right_extruder_temperature: 200
;left_extruder_temperature: 0
;platform_temperature: 60
;right_extruder_temperature_raft0: 0
;left_extruder_temperature_raft0: 0
;right_extruder_temperature_reset: 
;left_extruder_temperature_reset: 
;start gcode
M140 S60 T0
M104 S200 T0
M104 S0 T1
G90
G28
G1 Z50.000 F420
G161 X Y F3300
M190 S60 T0
M109 S200 T0
M109 S0 T1
G92 E.0000
;layer_count: 197
M108 T0
G1 X154.07 Y123.81 F4800
;preExtrude:0.20
;preExtruder0
M106 S255
G1 Z.200 F420
G1 X154.07 Y123.81 F4800
G1 X153.61 Y124.53 E.1091 F1200
G1 X152.76 Y125.64 E.2877
G1 X151.82 Y126.67 E.4658
G1 X150.79 Y127.61 E.6439
G1 X149.68 Y128.46 E.8224
G1 X148.51 Y129.21 E.9999
G1 X147.26 Y129.86 E1.1799
G1 X145.97 Y130.39 E1.3580
G1 X144.64 Y130.81 E1.5361
G1 X143.28 Y131.11 E1.7140
G1 X141.90 Y131.30 E1.8919
G1 X140.68 Y131.35 E2.0479
G1 X63.50 Y131.35 E11.9052
G1 X63.50 Y104.57 E15.3255
;raft
;layer:0.35
;support-start
;brim
G1 E10.3255 F2700
G1 Z.550 F420
G1 X66.90 Y104.49 F4200
G1 Z.350 F420
G1 E15.3255 F2700
G1 X66.90 Y104.49 F4200
G1 X66.93 Y103.86 E15.3608 F600
G1 X67.05 Y102.76 E15.4226
G1 X67.26 Y101.68 E15.4841
G1 X67.56 Y100.63 E15.5451
G1 X67.96 Y99.61 E15.6063
G1 X68.44 Y98.62 E15.6678
G1 X69.01 Y97.67 E15.7297
G1 X69.65 Y96.79 E15.7905
G1 X70.37 Y95.98 E15.8511
G1 X70.80 Y95.56 E15.8846
G1 X71.17 Y95.20 E15.9135
G1 X72.03 Y94.51 E15.9751
G1 X72.94 Y93.90 E16.0363
G1 X73.91 Y93.36 E16.0983
G1 X74.91 Y92.92 E16.1594
G1 X75.95 Y92.57 E16.2207
G1 X77.01 Y92.30 E16.2818
G1 X78.11 Y92.13 E16.3440
G1 X79.16 Y92.06 E16.4028
G1 X80.26 Y92.05 E16.4643
G1 X90.26 Y92.05 E17.0231
G1 X100.26 Y92.05 E17.5818
G1 X110.26 Y92.05 E18.1406
G1 X140.55 Y92.05 E19.8331
G1 X141.85 Y92.13 E19.9059
G1 X142.93 Y92.29 E19.9669
G1 X144.01 Y92.55 E20.0290
G1 X145.04 Y92.90 E20.0898
G1 X146.04 Y93.34 E20.1508
G1 X147.01 Y93.87 E20.2126
G1 X147.93 Y94.48 E20.2742
G1 X148.78 Y95.16 E20.3351
G1 X149.57 Y95.91 E20.3959
G1 X150.31 Y96.75 E20.4585
G1 X150.96 Y97.63 E20.5196
G1 X151.53 Y98.56 E20.5806
G1 X152.02 Y99.55 E20.6423
G1 X152.42 Y100.57 E20.7035
G1 X152.73 Y101.62 E20.7647
G1 X152.94 Y102.69 E20.8256
G1 X153.07 Y103.75 E20.8853
G1 X153.10 Y104.44 E20.9239
G1 X153.10 Y115.40 E21.5363
G1 X153.02 Y116.70 E21.6091
G1 X152.86 Y117.77 E21.6695
G1 X152.60 Y118.85 E21.7316
G1 X152.25 Y119.89 E21.7929
G1 X151.81 Y120.89 E21.8540
G1 X151.28 Y121.86 E21.9157
G1 X150.67 Y122.78 E21.9774
G1 X149.99 Y123.63 E22.0382
G1 X149.24 Y124.42 E22.0991
G1 X148.40 Y125.16 E22.1616
G1 X147.52 Y125.81 E22.2228
G1 X146.59 Y126.38 E22.2837
G1 X145.60 Y126.87 E22.3455
G1 X144.58 Y127.27 E22.4067
G1 X143.53 Y127.58 E22.4678
G1 X142.46 Y127.79 E22.5288
G1 X141.40 Y127.92 E22.5885
G1 X140.71 Y127.95 E22.6270
G1 X87.50 Y127.95 E25.6003
G1 X86.88 Y127.87 E25.6352
G1 X85.84 Y127.57 E25.6957
G1 X85.00 Y127.12 E25.7489
G1 X84.52 Y127.40 E25.7800
G1 X83.48 Y127.81 E25.8424
G1 X82.50 Y127.95 E25.8978
G1 X71.50 Y127.95 E26.5124
G1 X70.88 Y127.87 E26.5473
G1 X69.84 Y127.57 E26.6078
G1 X68.91 Y127.07 E26.6668
G1 X68.71 Y126.92 E26.6808
G1 X67.95 Y126.16 E26.7408
G1 X67.46 Y125.39 E26.7918
G1 X67.07 Y124.41 E26.8508
G1 X66.91 Y123.47 E26.9041
G1 X66.90 Y123.35 E26.9108
G1 X66.90 Y104.49 E27.9646
G1 E22.9646 F2700
G1 X66.90 Y104.49 F4200
G1 E27.9646 F2700
G1 X66.90 Y104.49 F4200
G1 X66.93 Y103.86 E27.9999 F600
G1 X67.05 Y102.76 E28.0617
G1 X67.26 Y101.68 E28.1232
G1 X67.56 Y100.63 E28.1842
G1 X67.96 Y99.61 E28.2454
G1 X68.44 Y98.62 E28.3069
G1 X69.01 Y97.67 E28.3688
G1 X69.65 Y96.79 E28.4296
G1 X70.37 Y95.98 E28.4901
G1 X71.17 Y95.20 E28.5526
G1 X72.03 Y94.51 E28.6142
G1 X72.94 Y93.90 E28.6754
G1 X73.91 Y93.36 E28.7374
G1 X74.91 Y92.92 E28.7985
G1 X75.95 Y92.57 E28.8598
G1 X77.01 Y92.30 E28.9209
G1 X78.11 Y92.13 E28.9831
G1 X79.16 Y92.06 E29.0419
G1 X80.26 Y92.05 E29.1034
G1 X140.55 Y92.05 E32.4722
G1 X141.85 Y92.13 E32.5450
G1 X142.93 Y92.29 E32.6060
G1 X144.01 Y92.55 E32.6681
G1 X145.04 Y92.90 E32.7288
G1 X146.04 Y93.34 E32.7899
G1 X147.01 Y93.87 E32.8517
G1 X147.93 Y94.48 E32.9133
G1 X148.78 Y95.16 E32.9742
G1 X149.57 Y95.91 E33.0350
G1 X150.31 Y96.75 E33.0976
G1 X150.96 Y97.63 E33.1587
G1 X151.53 Y98.56 E33.2197
G1 X152.02 Y99.55 E33.2814
G1 X152.42 Y100.57 E33.3426
G1 X152.73 Y101.62 E33.4038
G1 X152.94 Y102.69 E33.4647
G1 X153.07 Y103.75 E33.5244
G1 X153.10 Y104.44 E33.5630
G1 X153.10 Y115.40 E34.1754
G1 X153.02 Y116.70 E34.2482
G1 X152.86 Y117.77 E34.3086
G1 X152.60 Y118.85 E34.3707
G1 X152.25 Y119.89 E34.4320
G1 X151.81 Y120.89 E34.4931
G1 X151.28 Y121.86 E34.5548
G1 X150.67 Y122.78 E34.6165
G1 X149.99 Y123.63 E34.6773
G1 X149.24 Y124.42 E34.7382
G1 X148.40 Y125.16 E34.8007
G1 X147.52 Y125.81 E34.8619
G1 X146.59 Y126.38 E34.9228
G1 X145.60 Y126.87 E34.9845
G1 X144.58 Y127.27 E35.0458
G1 X143.53 Y127.58 E35.1069
G1 X142.46 Y127.79 E35.1679
G1 X141.40 Y127.92 E35.2275
G1 X140.71 Y127.95 E35.2661
G1 X87.50 Y127.95 E38.2393
G1 X86.88 Y127.87 E38.2743
G1 X85.84 Y127.57 E38.3348
G1 X85.00 Y127.12 E38.3880
G1 X84.52 Y127.40 E38.4191
G1 X83.48 Y127.81 E38.4815
G1 X82.50 Y127.95 E38.5368
G1 X71.50 Y127.95 E39.1515
G1 X70.88 Y127.87 E39.1864
G1 X69.84 Y127.57 E39.2469
G1 X68.91 Y127.07 E39.3059
G1 X68.71 Y126.92 E39.3199
G1 X67.95 Y126.16 E39.3799
G1 X67.46 Y125.39 E39.4309
G1 X67.07 Y124.41 E39.4899
G1 X66.91 Y123.47 E39.5431
G1 X66.90 Y123.35 E39.5499
G1 X66.90 Y104.49 E40.6037
G1 E35.6037 F2700
G1 Z.550 F420
G1 X67.30 Y104.51 F4200
G1 Z.350 F420
G1 E40.6037 F2700
G1 X67.30 Y104.51 F4200
G1 X67.33 Y103.90 E40.6378 F600
G1 X67.44 Y102.84 E40.6974
G1 X67.64 Y101.79 E40.7571
G1 X67.94 Y100.77 E40.8165
G1 X68.32 Y99.78 E40.8758
G1 X68.78 Y98.83 E40.9347
G1 X69.34 Y97.91 E40.9949
G1 X69.96 Y97.06 E41.0537
G1 X70.64 Y96.26 E41.1124
G1 X71.42 Y95.51 E41.1728
G1 X72.25 Y94.84 E41.2325
G1 X73.13 Y94.25 E41.2917
G1 X74.07 Y93.73 E41.3517
G1 X75.04 Y93.30 E41.4110
G1 X76.04 Y92.95 E41.4702
G1 X77.07 Y92.70 E41.5294
G1 X78.14 Y92.53 E41.5899
G1 X79.16 Y92.46 E41.6471
G1 X80.26 Y92.45 E41.7085
G1 X140.55 Y92.45 E45.0773
G1 X141.79 Y92.52 E45.1467
G1 X142.84 Y92.68 E45.2061
G1 X143.88 Y92.93 E45.2659
G1 X144.88 Y93.27 E45.3249
G1 X145.85 Y93.69 E45.3839
G1 X146.79 Y94.20 E45.4437
G1 X147.68 Y94.79 E45.5034
G1 X148.51 Y95.45 E45.5626
G1 X149.27 Y96.18 E45.6215
G1 X149.99 Y96.98 E45.6816
G1 X150.62 Y97.84 E45.7412
G1 X151.17 Y98.74 E45.8001
G1 X151.65 Y99.70 E45.8601
G1 X152.04 Y100.69 E45.9196
G1 X152.33 Y101.70 E45.9783
G1 X152.55 Y102.74 E46.0377
G1 X152.67 Y103.76 E46.0951
G1 X152.70 Y104.46 E46.1342
G1 X152.70 Y115.40 E46.7455
G1 X152.63 Y116.64 E46.8149
G1 X152.47 Y117.68 E46.8737
G1 X152.22 Y118.72 E46.9335
G1 X151.88 Y119.73 E46.9930
G1 X151.46 Y120.70 E47.0521
G1 X150.95 Y121.64 E47.1118
G1 X150.36 Y122.53 E47.1715
G1 X149.70 Y123.36 E47.2308
G1 X148.97 Y124.12 E47.2897
G1 X148.17 Y124.84 E47.3498
G1 X147.31 Y125.47 E47.4094
G1 X146.41 Y126.02 E47.4683
G1 X145.45 Y126.50 E47.5283
G1 X144.46 Y126.89 E47.5877
G1 X143.45 Y127.18 E47.6464
G1 X142.41 Y127.40 E47.7058
G1 X141.39 Y127.52 E47.7632
G1 X140.69 Y127.55 E47.8024
G1 X87.50 Y127.55 E50.7745
G1 X86.98 Y127.48 E50.8038
G1 X86.02 Y127.21 E50.8595
G1 X85.15 Y126.75 E50.9145
G1 X84.98 Y126.66 E50.9253
G1 X84.38 Y127.03 E50.9646
G1 X83.41 Y127.41 E51.0228
G1 X82.56 Y127.55 E51.0710
G1 X82.50 Y127.55 E51.0743
G1 X71.50 Y127.55 E51.6890
G1 X70.98 Y127.48 E51.7183
G1 X70.02 Y127.21 E51.7740
G1 X69.15 Y126.75 E51.8290
G1 X68.99 Y126.63 E51.8402
G1 X68.29 Y125.95 E51.8947
G1 X67.83 Y125.24 E51.9420
G1 X67.44 Y124.26 E52.0009
G1 X67.30 Y123.41 E52.0491
G1 X67.30 Y123.35 E52.0524
G1 X67.30 Y104.51 E53.1051
G1 E48.1051 F2700
G1 Z.550 F420
G1 X67.70 Y104.52 F4200
G1 Z.350 F420
G1 E53.1051 F2700
G1 X67.70 Y104.52 F4200
G1 X67.73 Y103.95 E53.1370 F600
G1 X67.83 Y102.92 E53.1949
G1 X68.03 Y101.90 E53.2529
G1 X68.31 Y100.92 E53.3099
G1 X68.68 Y99.96 E53.3674
G1 X69.13 Y99.03 E53.4251
G1 X69.66 Y98.14 E53.4830
G1 X70.26 Y97.32 E53.5398
G1 X70.92 Y96.55 E53.5964
G1 X71.68 Y95.82 E53.6553
G1 X72.48 Y95.17 E53.7129
G1 X73.33 Y94.60 E53.7701
G1 X74.23 Y94.10 E53.8276
G1 X75.17 Y93.68 E53.8851
G1 X76.14 Y93.34 E53.9426
G1 X77.14 Y93.09 E54.0002
G1 X78.16 Y92.93 E54.0579
G1 X79.16 Y92.86 E54.1139
G1 X80.27 Y92.85 E54.1759
G1 X140.55 Y92.85 E57.5442
G1 X141.73 Y92.92 E57.6102
G1 X142.74 Y93.07 E57.6673
G1 X143.75 Y93.31 E57.7253
G1 X144.73 Y93.64 E57.7831
G1 X145.66 Y94.04 E57.8396
G1 X146.57 Y94.53 E57.8974
G1 X147.43 Y95.10 E57.9550
G1 X148.23 Y95.74 E58.0123
G1 X148.97 Y96.44 E58.0692
G1 X149.66 Y97.22 E58.1274
G1 X150.28 Y98.05 E58.1853
G1 X150.81 Y98.92 E58.2422
G1 X151.27 Y99.84 E58.2997
G1 X151.65 Y100.80 E58.3574
G1 X151.94 Y101.78 E58.4145
G1 X152.15 Y102.79 E58.4721
G1 X152.27 Y103.78 E58.5279
G1 X152.30 Y104.48 E58.5670
G1 X152.30 Y115.40 E59.1772
G1 X152.23 Y116.58 E59.2432
G1 X152.08 Y117.59 E59.3003
G1 X151.84 Y118.59 E59.3577
G1 X151.52 Y119.57 E59.4154
G1 X151.11 Y120.51 E59.4727
G1 X150.62 Y121.42 E59.5304
G1 X150.05 Y122.28 E59.5881
G1 X149.41 Y123.08 E59.6453
G1 X148.71 Y123.82 E59.7022
G1 X147.93 Y124.51 E59.7604
G1 X147.10 Y125.13 E59.8183
G1 X146.23 Y125.66 E59.8752
G1 X145.31 Y126.12 E59.9327
G1 X144.35 Y126.50 E59.9904
G1 X143.37 Y126.79 E60.0475
G1 X142.36 Y127.00 E60.1051
G1 X141.37 Y127.12 E60.1609
G1 X140.67 Y127.15 E60.2000
G1 X87.50 Y127.15 E63.1710
G1 X87.09 Y127.10 E63.1941
G1 X86.13 Y126.83 E63.2498
G1 X85.34 Y126.40 E63.3001
G1 X85.00 Y126.09 E63.3258
G1 X84.71 Y126.37 E63.3483
G1 X84.17 Y126.69 E63.3834
G1 X83.27 Y127.04 E63.4373
G1 X82.50 Y127.15 E63.4808
G1 X71.50 Y127.15 E64.0954
G1 X71.09 Y127.10 E64.1185
G1 X70.13 Y126.83 E64.1742
G1 X69.34 Y126.40 E64.2245
G1 X69.27 Y126.34 E64.2296
G1 X68.62 Y125.73 E64.2795
G1 X68.20 Y125.09 E64.3222
G1 X67.81 Y124.12 E64.3806
G1 X67.70 Y123.35 E64.4241
G1 X67.70 Y104.52 E65.4763
G1 E60.4763 F2700
G1 Z.550 F420
G1 X68.10 Y104.54 F4200
G1 Z.350 F420
G1 E65.4763 F2700
G1 X68.10 Y104.54 F4200
G1 X68.12 Y103.99 E65.5070 F600
G1 X68.23 Y102.99 E65.5632
G1 X68.41 Y102.01 E65.6189
G1 X68.68 Y101.06 E65.6741
G1 X69.04 Y100.13 E65.7298
G1 X69.47 Y99.24 E65.7851
G1 X69.98 Y98.38 E65.8409
G1 X70.56 Y97.58 E65.8961
G1 X71.20 Y96.84 E65.9508
G1 X71.93 Y96.13 E66.0077
G1 X72.70 Y95.50 E66.0633
G1 X73.52 Y94.95 E66.1185
G1 X74.39 Y94.46 E66.1743
G1 X75.30 Y94.06 E66.2298
G1 X76.24 Y93.73 E66.2855
G1 X77.20 Y93.49 E66.3408
G1 X78.19 Y93.33 E66.3968
G1 X79.17 Y93.26 E66.4517
G1 X80.27 Y93.25 E66.5132
G1 X140.55 Y93.25 E69.8814
G1 X141.67 Y93.31 E69.9441
G1 X142.65 Y93.46 E69.9995
G1 X143.62 Y93.69 E70.0552
G1 X144.57 Y94.00 E70.1110
G1 X145.47 Y94.39 E70.1659
G1 X146.35 Y94.87 E70.2219
G1 X147.18 Y95.42 E70.2775
G1 X147.96 Y96.03 E70.3328
G1 X148.68 Y96.71 E70.3882
G1 X149.34 Y97.46 E70.4440
G1 X149.94 Y98.26 E70.4999
G1 X150.45 Y99.10 E70.5548
G1 X150.90 Y99.99 E70.6105
G1 X151.27 Y100.92 E70.6664
G1 X151.55 Y101.87 E70.7218
G1 X151.75 Y102.83 E70.7766
G1 X151.87 Y103.80 E70.8312
G1 X151.90 Y104.50 E70.8703
G1 X151.90 Y115.40 E71.4794
G1 X151.84 Y116.52 E71.5421
G1 X151.69 Y117.50 E71.5975
G1 X151.46 Y118.47 E71.6532
G1 X151.15 Y119.41 E71.7085
G1 X150.76 Y120.32 E71.7638
G1 X150.28 Y121.20 E71.8198
G1 X149.73 Y122.03 E71.8754
G1 X149.12 Y122.81 E71.9308
G1 X148.44 Y123.53 E71.9861
G1 X147.69 Y124.19 E72.0419
G1 X146.89 Y124.79 E72.0978
G1 X146.05 Y125.30 E72.1527
G1 X145.16 Y125.75 E72.2084
G1 X144.23 Y126.12 E72.2644
G1 X143.28 Y126.40 E72.3197
G1 X142.32 Y126.60 E72.3745
G1 X141.35 Y126.72 E72.4291
G1 X140.65 Y126.75 E72.4683
G1 X87.50 Y126.75 E75.4381
G1 X87.20 Y126.71 E75.4551
G1 X86.24 Y126.44 E75.5108
G1 X85.54 Y126.05 E75.5556
G1 X84.99 Y125.54 E75.5975
G1 X84.50 Y126.03 E75.6362
G1 X84.03 Y126.31 E75.6668
G1 X83.12 Y126.66 E75.7212
G1 X82.50 Y126.75 E75.7562
G1 X71.50 Y126.75 E76.3709
G1 X71.20 Y126.71 E76.3878
G1 X70.24 Y126.44 E76.4435
G1 X69.54 Y126.05 E76.4883
G1 X68.89 Y125.43 E76.5385
G1 X68.54 Y124.88 E76.5749
G1 X68.19 Y123.97 E76.6294
G1 X68.10 Y123.35 E76.6644
G1 X68.10 Y104.54 E77.7155
G1 E72.7155 F2700
G1 Z.550 F420
G1 X68.50 Y104.56 F4200
G1 Z.350 F420
G1 E77.7155 F2700
G1 X68.50 Y104.56 F4200
G1 X68.52 Y104.03 E77.7451 F600
G1 X68.62 Y103.07 E77.7990
G1 X68.80 Y102.12 E77.8531
G1 X69.06 Y101.20 E77.9065
G1 X69.40 Y100.31 E77.9597
G1 X69.81 Y99.44 E78.0134
G1 X70.31 Y98.61 E78.0676
G1 X70.86 Y97.84 E78.1205
G1 X71.48 Y97.12 E78.1736
G1 X72.18 Y96.44 E78.2281
G1 X72.92 Y95.83 E78.2817
G1 X73.72 Y95.30 E78.3353
G1 X74.56 Y94.83 E78.3891
G1 X75.43 Y94.44 E78.4424
G1 X76.34 Y94.12 E78.4962
G1 X77.27 Y93.88 E78.5499
G1 X78.22 Y93.73 E78.6037
G1 X79.17 Y93.66 E78.6569
G1 X80.27 Y93.65 E78.7184
G1 X140.55 Y93.65 E82.0866
G1 X141.62 Y93.71 E82.1465
G1 X142.56 Y93.85 E82.1996
G1 X143.50 Y94.07 E82.2536
G1 X144.41 Y94.37 E82.3071
G1 X145.28 Y94.75 E82.3601
G1 X146.13 Y95.20 E82.4139
G1 X146.93 Y95.73 E82.4675
G1 X147.68 Y96.32 E82.5208
G1 X148.38 Y96.98 E82.5746
G1 X149.02 Y97.70 E82.6284
G1 X149.60 Y98.47 E82.6823
G1 X150.10 Y99.28 E82.7355
G1 X150.53 Y100.14 E82.7892
G1 X150.88 Y101.03 E82.8426
G1 X151.16 Y101.95 E82.8964
G1 X151.36 Y102.88 E82.9495
G1 X151.47 Y103.82 E83.0024
G1 X151.50 Y104.52 E83.0416
G1 X151.50 Y115.40 E83.6495
G1 X151.44 Y116.46 E83.7088
G1 X151.30 Y117.40 E83.7619
G1 X151.08 Y118.34 E83.8159
G1 X150.78 Y119.25 E83.8694
G1 X150.40 Y120.13 E83.9230
G1 X149.95 Y120.98 E83.9767
G1 X149.42 Y121.78 E84.0303
G1 X148.83 Y122.53 E84.0837
G1 X148.17 Y123.23 E84.1374
G1 X147.45 Y123.87 E84.1913
G1 X146.68 Y124.45 E84.2451
G1 X145.87 Y124.95 E84.2983
G1 X145.01 Y125.38 E84.3520
G1 X144.12 Y125.74 E84.4057
G1 X143.20 Y126.01 E84.4593
G1 X142.27 Y126.21 E84.5124
G1 X141.33 Y126.32 E84.5653
G1 X140.63 Y126.35 E84.6044
G1 X87.50 Y126.35 E87.5732
G1 X87.30 Y126.33 E87.5844
G1 X86.43 Y126.09 E87.6349
G1 X85.81 Y125.75 E87.6744
G1 X85.23 Y125.21 E87.7187
G1 X85.00 Y124.87 E87.7416
G1 X84.84 Y125.13 E87.7586
G1 X84.29 Y125.69 E87.8025
G1 X83.88 Y125.94 E87.8293
G1 X83.07 Y126.27 E87.8782
G1 X82.50 Y126.35 E87.9104
G1 X71.50 Y126.35 E88.5250
G1 X71.30 Y126.33 E88.5363
G1 X70.43 Y126.09 E88.5867
G1 X69.81 Y125.75 E88.6262
G1 X69.23 Y125.21 E88.6705
G1 X68.91 Y124.73 E88.7027
G1 X68.58 Y123.92 E88.7516
G1 X68.50 Y123.35 E88.7838
G1 X68.50 Y104.56 E89.8337
G1 E84.8337 F2700
G1 Z.550 F420
G1 X68.90 Y104.57 F4200
G1 Z.350 F420
G1 E89.8337 F2700
G1 X68.90 Y104.57 F4200
G1 X68.92 Y104.06 E89.8622 F600
G1 X69.01 Y103.14 E89.9138
G1 X69.18 Y102.23 E89.9656
G1 X69.43 Y101.34 E90.0172
G1 X69.76 Y100.48 E90.0687
G1 X70.16 Y99.65 E90.1202
G1 X70.63 Y98.85 E90.1720
G1 X71.17 Y98.10 E90.2237
G1 X71.76 Y97.41 E90.2744
G1 X72.44 Y96.75 E90.3273
G1 X73.15 Y96.17 E90.3786
G1 X73.91 Y95.64 E90.4303
G1 X74.72 Y95.19 E90.4821
G1 X75.56 Y94.81 E90.5336
G1 X76.43 Y94.51 E90.5851
G1 X77.33 Y94.28 E90.6370
G1 X78.25 Y94.13 E90.6891
G1 X79.17 Y94.06 E90.7406
G1 X80.28 Y94.05 E90.8026
G1 X140.55 Y94.05 E94.1703
G1 X141.56 Y94.11 E94.2269
G1 X142.47 Y94.24 E94.2782
G1 X143.37 Y94.45 E94.3299
G1 X144.25 Y94.74 E94.3817
G1 X145.09 Y95.10 E94.4327
G1 X145.91 Y95.54 E94.4847
G1 X146.69 Y96.04 E94.5365
G1 X147.41 Y96.61 E94.5878
G1 X148.08 Y97.24 E94.6392
G1 X148.70 Y97.94 E94.6914
G1 X149.26 Y98.68 E94.7433
G1 X149.74 Y99.46 E94.7945
G1 X150.16 Y100.29 E94.8464
G1 X150.50 Y101.15 E94.8981
G1 X150.77 Y102.03 E94.9496
G1 X150.96 Y102.93 E95.0010
G1 X151.07 Y103.84 E95.0522
G1 X151.10 Y104.53 E95.0908
G1 X151.10 Y115.40 E95.6982
G1 X151.04 Y116.40 E95.7541
G1 X150.91 Y117.31 E95.8055
G1 X150.70 Y118.22 E95.8577
G1 X150.41 Y119.09 E95.9089
G1 X150.05 Y119.94 E95.9605
G1 X149.61 Y120.76 E96.0125
G1 X149.11 Y121.54 E96.0643
G1 X148.54 Y122.26 E96.1156
G1 X147.91 Y122.93 E96.1670
G1 X147.21 Y123.55 E96.2192
G1 X146.47 Y124.11 E96.2711
G1 X145.69 Y124.59 E96.3223
G1 X144.86 Y125.01 E96.3742
G1 X144.00 Y125.35 E96.4259
G1 X143.12 Y125.62 E96.4773
G1 X142.22 Y125.81 E96.5287
G1 X141.31 Y125.92 E96.5800
G1 X140.62 Y125.95 E96.6185
G1 X87.50 Y125.95 E99.5867
