;generated by ffslicer 1.30.3 04/27/22 04:20:08
;right_extruder_material: PLA
;layer_height: 0.2
;perimeter_shells: 2
;top_solid_layers: 4
;bottom_solid_layers: 3
;fill_density: 18%
;fill_pattern: hexagon
;base_print_speed: 45
;travel_speed: 70
;right_extruder_temperature: 200
;left_extruder_temperature: 0
;platform_temperature: 60
;right_extruder_temperature_raft0: 0
;left_extruder_temperature_raft0: 0
;right_extruder_temperature_reset: 
;left_extruder_temperature_reset: 
;start gcode
M140 S60 T0
M104 S200 T0
M104 S0 T1
G90
G28
G1 Z50.000 F420
G161 X Y F3300
M190 S60 T0
M109 S200 T0
M109 S0 T1
G92 E.0000
;layer_count: 49
M108 T0
G1 X70.23 Y170.73 F4200
;preExtrude:0.20
;preExtruder0
M106 S255
G1 Z.200 F420
G1 X70.23 Y170.73 F4200
G1 X57.76 Y170.73 E1.5927 F1200
G1 X55.83 Y170.35 E1.8439
G1 X42.29 Y167.26 E3.6177
G1 X32.81 Y157.18 E5.3850
G1 X30.97 Y154.41 E5.8097
G1 X30.30 Y151.03 E6.2498
G1 X30.30 Y79.97 E15.3255
;raft
;layer:0.36
;support-start
;brim
G1 E10.3255 F2700
G1 Z.560 F420
G1 X33.74 Y84.57 F4200
G1 Z.360 F420
G1 E15.3255 F2700
G1 X33.74 Y84.57 F4200
G1 X33.77 Y83.41 E15.3922 F600
G1 X33.96 Y82.45 E15.4484
G1 X33.74 Y81.16 E15.5236
G1 X33.77 Y80.00 E15.5903
G1 X34.06 Y78.58 E15.6736
G1 X34.52 Y77.45 E15.7437
G1 X34.59 Y77.31 E15.7527
G1 X35.42 Y76.07 E15.8385
G1 X36.26 Y75.21 E15.9076
G1 X36.58 Y74.96 E15.9309
G1 X37.81 Y74.19 E16.0143
G1 X38.93 Y73.76 E16.0833
G1 X40.39 Y73.48 E16.1687
G1 X41.59 Y73.47 E16.2377
G1 X41.84 Y73.52 E16.2524
G1 X41.85 Y70.95 E16.4001
G1 X41.93 Y70.38 E16.4331
G1 X42.23 Y69.34 E16.4953
G1 X42.73 Y68.41 E16.5560
G1 X42.88 Y68.21 E16.5704
G1 X43.63 Y67.45 E16.6318
G1 X44.41 Y66.96 E16.6847
G1 X45.38 Y66.57 E16.7448
G1 X46.32 Y66.41 E16.7996
G1 X46.44 Y66.40 E16.8065
G1 X51.03 Y66.40 E17.0703
G1 X52.91 Y66.40 E17.1784
G1 X53.19 Y66.04 E17.2046
G1 X54.03 Y65.27 E17.2701
G1 X55.19 Y64.52 E17.3495
G1 X56.30 Y64.05 E17.4187
G1 X56.58 Y63.98 E17.4353
G1 X58.35 Y63.69 E17.5384
G1 X58.72 Y63.69 E17.5597
G1 X60.48 Y63.97 E17.6621
G1 X61.65 Y64.39 E17.7336
G1 X62.06 Y64.60 E17.7600
G1 X63.23 Y65.39 E17.8412
G1 X64.10 Y66.26 E17.9119
G1 X64.20 Y66.38 E17.9209
G1 X65.02 Y67.63 E18.0068
G1 X65.49 Y68.73 E18.0755
G1 X65.51 Y68.80 E18.0797
G1 X65.78 Y70.12 E18.1571
G1 X66.26 Y71.00 E18.2148
G1 X66.50 Y71.79 E18.2622
G1 X66.75 Y73.24 E18.3468
G1 X66.74 Y73.50 E18.3617
G1 X66.84 Y73.51 E18.3675
G1 X66.85 Y70.95 E18.5146
G1 X66.93 Y70.38 E18.5477
G1 X67.23 Y69.34 E18.6099
G1 X67.73 Y68.41 E18.6706
G1 X67.88 Y68.21 E18.6850
G1 X68.63 Y67.45 E18.7464
G1 X69.41 Y66.96 E18.7993
G1 X70.38 Y66.57 E18.8594
G1 X71.32 Y66.41 E18.9142
G1 X71.44 Y66.40 E18.9211
G1 X77.91 Y66.40 E19.2930
G1 X78.19 Y66.04 E19.3192
G1 X79.03 Y65.27 E19.3847
G1 X80.26 Y64.48 E19.4687
G1 X81.37 Y64.03 E19.5375
G1 X81.51 Y64.00 E19.5457
G1 X83.01 Y63.72 E19.6334
G1 X84.11 Y63.72 E19.6967
G1 X84.18 Y63.73 E19.7007
G1 X85.64 Y64.01 E19.7862
G1 X86.78 Y64.45 E19.8564
G1 X87.03 Y64.59 E19.8729
G1 X88.29 Y65.45 E19.9605
G1 X89.10 Y66.26 E20.0264
G1 X89.17 Y66.35 E20.0329
G1 X90.02 Y67.62 E20.1208
G1 X90.48 Y68.70 E20.1882
G1 X90.52 Y68.84 E20.1966
G1 X90.78 Y70.12 E20.2717
G1 X91.26 Y71.00 E20.3293
G1 X91.50 Y71.79 E20.3767
G1 X91.75 Y73.24 E20.4613
G1 X91.74 Y73.50 E20.4763
G1 X91.84 Y73.51 E20.4820
G1 X91.85 Y70.95 E20.6292
G1 X91.93 Y70.38 E20.6622
G1 X92.23 Y69.34 E20.7245
G1 X92.73 Y68.41 E20.7851
G1 X92.88 Y68.21 E20.7995
G1 X93.63 Y67.45 E20.8609
G1 X94.41 Y66.96 E20.9138
G1 X95.38 Y66.57 E20.9739
G1 X96.32 Y66.41 E21.0287
G1 X96.44 Y66.40 E21.0356
G1 X102.91 Y66.40 E21.4075
G1 X103.19 Y66.04 E21.4337
G1 X104.03 Y65.27 E21.4992
G1 X105.26 Y64.48 E21.5832
G1 X106.37 Y64.03 E21.6520
G1 X106.51 Y64.00 E21.6603
G1 X108.01 Y63.72 E21.7480
G1 X109.11 Y63.72 E21.8112
G1 X109.18 Y63.73 E21.8153
G1 X110.64 Y64.01 E21.9007
G1 X111.78 Y64.45 E21.9709
G1 X112.03 Y64.59 E21.9874
G1 X113.29 Y65.45 E22.0751
G1 X114.10 Y66.26 E22.1409
G1 X114.17 Y66.35 E22.1475
G1 X115.02 Y67.62 E22.2353
G1 X115.48 Y68.70 E22.3028
G1 X115.52 Y68.84 E22.3111
G1 X115.78 Y70.12 E22.3862
G1 X116.26 Y71.00 E22.4438
G1 X116.50 Y71.79 E22.4913
G1 X116.75 Y73.24 E22.5758
G1 X116.74 Y73.50 E22.5908
G1 X116.84 Y73.51 E22.5966
G1 X116.85 Y70.95 E22.7437
G1 X116.93 Y70.38 E22.7768
G1 X117.23 Y69.34 E22.8390
G1 X117.73 Y68.41 E22.8997
G1 X117.88 Y68.21 E22.9140
G1 X118.63 Y67.45 E22.9754
G1 X119.41 Y66.96 E23.0283
G1 X120.38 Y66.57 E23.0884
G1 X121.32 Y66.41 E23.1432
G1 X121.44 Y66.40 E23.1502
G1 X127.91 Y66.40 E23.5220
G1 X128.19 Y66.04 E23.5482
G1 X129.03 Y65.27 E23.6137
G1 X130.26 Y64.48 E23.6977
G1 X131.37 Y64.03 E23.7666
G1 X131.51 Y64.00 E23.7748
G1 X133.01 Y63.72 E23.8625
G1 X134.11 Y63.72 E23.9257
G1 X134.18 Y63.73 E23.9298
G1 X135.64 Y64.01 E24.0152
G1 X136.78 Y64.45 E24.0855
G1 X137.03 Y64.59 E24.1019
G1 X138.29 Y65.45 E24.1896
G1 X139.10 Y66.26 E24.2554
G1 X139.17 Y66.35 E24.2620
G1 X140.01 Y67.62 E24.3495
G1 X140.48 Y68.70 E24.4172
G1 X140.52 Y68.84 E24.4256
G1 X140.78 Y70.12 E24.5006
G1 X141.26 Y71.00 E24.5582
G1 X141.50 Y71.79 E24.6057
G1 X141.75 Y73.24 E24.6903
G1 X141.74 Y73.50 E24.7052
G1 X141.84 Y73.51 E24.7110
G1 X141.85 Y70.95 E24.8581
G1 X141.93 Y70.38 E24.8912
G1 X142.23 Y69.34 E24.9534
G1 X142.73 Y68.41 E25.0141
G1 X142.88 Y68.21 E25.0285
G1 X143.63 Y67.45 E25.0898
G1 X144.41 Y66.96 E25.1428
G1 X145.38 Y66.57 E25.2029
G1 X146.32 Y66.41 E25.2577
G1 X146.44 Y66.40 E25.2646
G1 X152.91 Y66.40 E25.6364
G1 X153.19 Y66.04 E25.6627
G1 X154.03 Y65.27 E25.7281
G1 X155.26 Y64.48 E25.8122
G1 X156.37 Y64.03 E25.8810
G1 X156.51 Y64.00 E25.8892
G1 X158.01 Y63.72 E25.9769
G1 X159.11 Y63.72 E26.0402
G1 X159.18 Y63.73 E26.0442
G1 X160.64 Y64.01 E26.1297
G1 X161.78 Y64.45 E26.1999
G1 X162.03 Y64.59 E26.2164
G1 X163.29 Y65.45 E26.3040
G1 X164.10 Y66.26 E26.3699
G1 X164.17 Y66.35 E26.3764
G1 X165.01 Y67.62 E26.4639
G1 X165.48 Y68.70 E26.5316
G1 X165.52 Y68.84 E26.5400
G1 X165.78 Y70.12 E26.6151
G1 X166.26 Y71.00 E26.6727
G1 X166.50 Y71.79 E26.7201
G1 X166.75 Y73.24 E26.8047
G1 X166.72 Y74.45 E26.8743
G1 X166.45 Y75.73 E26.9495
G1 X166.50 Y75.89 E26.9591
G1 X166.75 Y77.34 E27.0437
G1 X166.72 Y78.50 E27.1103
G1 X166.42 Y80.01 E27.1988
G1 X165.99 Y81.07 E27.2646
G1 X165.78 Y81.46 E27.2900
G1 X165.48 Y82.79 E27.3684
G1 X164.99 Y83.93 E27.4397
G1 X164.19 Y85.13 E27.5226
G1 X163.35 Y86.00 E27.5921
G1 X163.13 Y86.18 E27.6084
G1 X161.91 Y86.97 E27.6920
G1 X160.85 Y87.43 E27.7584
G1 X159.37 Y87.75 E27.8454
G1 X158.15 Y87.79 E27.9156
G1 X158.15 Y94.21 E28.2845
G1 X158.29 Y94.20 E28.2926
G1 X159.41 Y94.26 E28.3571
G1 X160.83 Y94.57 E28.4406
G1 X161.94 Y95.04 E28.5099
G1 X163.24 Y95.91 E28.5998
G1 X164.11 Y96.78 E28.6705
G1 X164.28 Y96.99 E28.6860
G1 X165.07 Y98.21 E28.7696
G1 X165.50 Y99.28 E28.8358
G1 X165.78 Y100.62 E28.9145
G1 X166.26 Y101.50 E28.9721
G1 X166.50 Y102.29 E29.0196
G1 X166.75 Y103.74 E29.1042
G1 X166.72 Y104.95 E29.1737
G1 X166.45 Y106.23 E29.2489
G1 X166.50 Y106.39 E29.2585
G1 X166.75 Y107.84 E29.3431
G1 X166.72 Y109.01 E29.4104
G1 X166.42 Y110.51 E29.4983
G1 X165.99 Y111.57 E29.5640
G1 X165.78 Y111.96 E29.5895
G1 X165.48 Y113.29 E29.6679
G1 X164.99 Y114.43 E29.7392
G1 X164.28 Y115.49 E29.8125
G1 X165.07 Y116.73 E29.8970
G1 X165.50 Y117.79 E29.9627
G1 X165.78 Y119.12 E30.0409
G1 X166.26 Y120.00 E30.0985
G1 X166.50 Y120.79 E30.1459
G1 X166.75 Y122.24 E30.2305
G1 X166.72 Y123.45 E30.3001
G1 X166.45 Y124.73 E30.3752
G1 X166.50 Y124.89 E30.3849
G1 X166.75 Y126.34 E30.4694
G1 X166.72 Y127.51 E30.5367
G1 X166.42 Y129.01 E30.6246
G1 X165.99 Y130.07 E30.6904
G1 X165.78 Y130.46 E30.7158
G1 X165.48 Y131.79 E30.7942
G1 X164.99 Y132.93 E30.8655
G1 X164.19 Y134.13 E30.9484
G1 X163.35 Y135.00 E31.0179
G1 X163.13 Y135.18 E31.0342
G1 X161.91 Y135.97 E31.1178
G1 X160.85 Y136.43 E31.1842
G1 X159.37 Y136.75 E31.2712
G1 X158.15 Y136.79 E31.3414
G1 X158.15 Y143.21 E31.7103
G1 X158.29 Y143.20 E31.7184
G1 X159.41 Y143.26 E31.7829
G1 X160.83 Y143.57 E31.8664
G1 X161.94 Y144.04 E31.9357
G1 X163.24 Y144.91 E32.0256
G1 X164.11 Y145.77 E32.0959
G1 X164.28 Y145.99 E32.1119
G1 X165.07 Y147.21 E32.1954
G1 X165.50 Y148.28 E32.2617
G1 X165.78 Y149.60 E32.3392
G1 X166.20 Y150.37 E32.3897
G1 X166.50 Y151.30 E32.4458
G1 X166.75 Y152.75 E32.5304
G1 X166.72 Y153.91 E32.5971
G1 X166.45 Y155.23 E32.6745
G1 X166.50 Y155.39 E32.6841
G1 X166.75 Y156.84 E32.7687
G1 X166.72 Y158.01 E32.8360
G1 X166.42 Y159.51 E32.9239
G1 X165.99 Y160.57 E32.9896
G1 X165.78 Y160.96 E33.0151
G1 X165.48 Y162.29 E33.0935
G1 X164.99 Y163.43 E33.1648
G1 X164.19 Y164.63 E33.2477
G1 X163.35 Y165.50 E33.3172
G1 X163.13 Y165.68 E33.3335
G1 X161.91 Y166.47 E33.4170
G1 X160.85 Y166.93 E33.4834
G1 X159.37 Y167.25 E33.5705
G1 X158.13 Y167.29 E33.6418
G1 X157.79 Y167.26 E33.6614
G1 X156.38 Y166.97 E33.7441
G1 X155.22 Y166.50 E33.8161
G1 X154.98 Y166.36 E33.8320
G1 X153.79 Y165.53 E33.9154
G1 X152.97 Y164.70 E33.9825
G1 X152.89 Y164.60 E33.9898
G1 X146.44 Y164.60 E34.3605
G1 X145.82 Y164.52 E34.3965
G1 X144.78 Y164.22 E34.4587
G1 X143.86 Y163.72 E34.5189
G1 X143.66 Y163.57 E34.5332
G1 X142.89 Y162.81 E34.5954
G1 X142.40 Y162.04 E34.6479
G1 X142.01 Y161.06 E34.7085
G1 X141.85 Y160.12 E34.7633
G1 X141.84 Y160.00 E34.7702
G1 X141.84 Y157.48 E34.9150
G1 X141.74 Y157.50 E34.9209
G1 X141.70 Y158.16 E34.9589
G1 X141.39 Y159.60 E35.0436
G1 X140.95 Y160.65 E35.1090
G1 X140.77 Y160.96 E35.1296
G1 X140.48 Y162.29 E35.2078
G1 X139.99 Y163.43 E35.2791
G1 X139.19 Y164.63 E35.3620
G1 X138.35 Y165.50 E35.4315
G1 X138.13 Y165.68 E35.4479
G1 X136.91 Y166.47 E35.5314
G1 X135.85 Y166.93 E35.5978
G1 X134.37 Y167.25 E35.6848
G1 X133.13 Y167.29 E35.7561
G1 X132.79 Y167.26 E35.7758
G1 X131.38 Y166.97 E35.8585
G1 X130.22 Y166.50 E35.9304
G1 X129.98 Y166.36 E35.9464
G1 X128.79 Y165.53 E36.0298
G1 X127.97 Y164.70 E36.0968
G1 X127.89 Y164.60 E36.1042
G1 X121.44 Y164.60 E36.4749
G1 X120.82 Y164.52 E36.5108
G1 X119.78 Y164.22 E36.5730
G1 X118.86 Y163.72 E36.6332
G1 X118.66 Y163.57 E36.6476
G1 X117.89 Y162.81 E36.7098
G1 X117.40 Y162.04 E36.7622
G1 X117.01 Y161.06 E36.8229
G1 X116.85 Y160.12 E36.8777
G1 X116.84 Y160.00 E36.8846
G1 X116.84 Y157.48 E37.0294
G1 X116.74 Y157.50 E37.0353
G1 X116.70 Y158.16 E37.0733
G1 X116.39 Y159.60 E37.1579
G1 X115.95 Y160.65 E37.2234
G1 X115.78 Y160.96 E37.2437
G1 X115.48 Y162.29 E37.3220
G1 X114.99 Y163.43 E37.3934
G1 X114.19 Y164.63 E37.4762
G1 X113.35 Y165.50 E37.5457
G1 X113.13 Y165.68 E37.5621
G1 X111.92 Y166.47 E37.6451
G1 X110.85 Y166.93 E37.7121
G1 X109.38 Y167.25 E37.7985
G1 X108.13 Y167.29 E37.8704
G1 X107.80 Y167.26 E37.8895
G1 X106.38 Y166.97 E37.9728
G1 X105.22 Y166.50 E38.0447
G1 X104.99 Y166.36 E38.0602
G1 X103.79 Y165.53 E38.1440
G1 X102.97 Y164.70 E38.2111
G1 X102.89 Y164.60 E38.2184
G1 X96.44 Y164.60 E38.5891
G1 X95.82 Y164.52 E38.6251
G1 X94.78 Y164.22 E38.6873
G1 X93.86 Y163.72 E38.7475
G1 X93.66 Y163.57 E38.7618
G1 X92.89 Y162.81 E38.8240
G1 X92.40 Y162.04 E38.8765
G1 X92.01 Y161.06 E38.9371
G1 X91.85 Y160.12 E38.9919
G1 X91.84 Y160.00 E38.9988
G1 X91.84 Y157.48 E39.1436
G1 X91.74 Y157.50 E39.1495
G1 X91.70 Y158.16 E39.1875
G1 X91.39 Y159.60 E39.2722
G1 X90.95 Y160.65 E39.3376
G1 X90.78 Y160.96 E39.3579
G1 X90.48 Y162.29 E39.4363
G1 X89.99 Y163.43 E39.5076
G1 X89.19 Y164.63 E39.5905
G1 X88.35 Y165.50 E39.6600
G1 X88.13 Y165.68 E39.6763
G1 X86.92 Y166.47 E39.7594
G1 X85.85 Y166.93 E39.8263
G1 X84.38 Y167.25 E39.9128
G1 X83.13 Y167.29 E39.9847
G1 X82.80 Y167.26 E40.0037
G1 X81.38 Y166.97 E40.0870
G1 X80.22 Y166.50 E40.1589
G1 X79.99 Y166.36 E40.1744
G1 X78.79 Y165.53 E40.2583
G1 X77.97 Y164.70 E40.3253
G1 X77.89 Y164.60 E40.3327
G1 X71.44 Y164.60 E40.7034
G1 X70.82 Y164.52 E40.7393
G1 X69.78 Y164.22 E40.8015
G1 X68.86 Y163.72 E40.8617
G1 X68.66 Y163.57 E40.8761
G1 X67.89 Y162.81 E40.9383
G1 X67.40 Y162.04 E40.9907
G1 X67.01 Y161.06 E41.0513
G1 X66.85 Y160.12 E41.1061
G1 X66.84 Y160.00 E41.1131
G1 X66.84 Y157.48 E41.2579
G1 X66.74 Y157.50 E41.2637
G1 X66.70 Y158.16 E41.3017
G1 X66.39 Y159.60 E41.3864
G1 X65.95 Y160.65 E41.4518
G1 X65.78 Y160.96 E41.4722
G1 X65.48 Y162.29 E41.5505
G1 X64.99 Y163.43 E41.6218
G1 X64.19 Y164.63 E41.7047
G1 X63.35 Y165.50 E41.7742
G1 X63.13 Y165.68 E41.7906
G1 X61.92 Y166.47 E41.8736
G1 X60.85 Y166.93 E41.9405
G1 X59.38 Y167.25 E42.0270
G1 X58.13 Y167.29 E42.0989
G1 X57.80 Y167.26 E42.1179
G1 X56.38 Y166.97 E42.2012
G1 X55.22 Y166.50 E42.2732
G1 X54.99 Y166.36 E42.2886
G1 X53.79 Y165.53 E42.3725
G1 X52.97 Y164.70 E42.4396
G1 X52.89 Y164.60 E42.4469
G1 X46.44 Y164.60 E42.8176
G1 X45.82 Y164.52 E42.8536
G1 X44.78 Y164.22 E42.9158
G1 X43.86 Y163.72 E42.9759
G1 X43.66 Y163.57 E42.9903
G1 X42.89 Y162.81 E43.0525
G1 X42.40 Y162.04 E43.1049
G1 X42.01 Y161.06 E43.1656
G1 X41.85 Y160.12 E43.2204
G1 X41.84 Y160.00 E43.2273
G1 X41.84 Y157.48 E43.3721
G1 X41.41 Y157.54 E43.3971
G1 X40.26 Y157.50 E43.4632
G1 X38.84 Y157.21 E43.5465
G1 X37.71 Y156.75 E43.6166
G1 X37.54 Y156.66 E43.6277
G1 X36.28 Y155.79 E43.7157
G1 X35.42 Y154.93 E43.7856
G1 X35.29 Y154.76 E43.7979
G1 X34.51 Y153.55 E43.8806
G1 X34.07 Y152.48 E43.9471
G1 X34.03 Y152.30 E43.9577
G1 X33.75 Y150.81 E44.0449
G1 X33.75 Y149.65 E44.1115
G1 X33.96 Y148.55 E44.1759
G1 X33.74 Y147.23 E44.2528
G1 X33.77 Y146.08 E44.3189
G1 X33.96 Y145.12 E44.3752
G1 X33.74 Y143.83 E44.4504
G1 X33.77 Y142.68 E44.5165
G1 X33.96 Y141.70 E44.5739
G1 X33.74 Y140.40 E44.6496
G1 X33.77 Y139.25 E44.7157
G1 X33.96 Y138.29 E44.7720
G1 X33.74 Y137.00 E44.8472
G1 X33.77 Y135.85 E44.9133
G1 X33.96 Y134.86 E44.9713
G1 X33.74 Y133.57 E45.0465
G1 X33.77 Y132.41 E45.1132
G1 X33.96 Y131.45 E45.1694
G1 X33.74 Y130.16 E45.2446
G1 X33.77 Y129.00 E45.3113
G1 X34.06 Y127.58 E45.3946
G1 X34.52 Y126.45 E45.4647
G1 X34.59 Y126.31 E45.4737
G1 X35.42 Y125.08 E45.5590
G1 X36.26 Y124.22 E45.6281
G1 X36.58 Y123.96 E45.6518
G1 X37.81 Y123.19 E45.7352
G1 X38.93 Y122.76 E45.8042
G1 X40.39 Y122.48 E45.8896
G1 X41.59 Y122.47 E45.9586
G1 X41.84 Y122.52 E45.9732
G1 X41.85 Y119.95 E46.1209
G1 X41.93 Y119.38 E46.1540
G1 X42.23 Y118.34 E46.2162
G1 X42.73 Y117.41 E46.2769
G1 X42.88 Y117.21 E46.2913
G1 X43.63 Y116.45 E46.3526
G1 X44.41 Y115.96 E46.4056
G1 X45.38 Y115.57 E46.4657
G1 X45.76 Y115.50 E46.4879
G1 X44.78 Y115.22 E46.5464
G1 X43.86 Y114.72 E46.6066
G1 X43.66 Y114.57 E46.6210
G1 X42.89 Y113.81 E46.6832
G1 X42.40 Y113.04 E46.7356
G1 X42.01 Y112.06 E46.7963
G1 X41.85 Y111.12 E46.8511
G1 X41.84 Y111.00 E46.8580
G1 X41.84 Y108.48 E47.0028
G1 X41.41 Y108.54 E47.0278
G1 X40.26 Y108.50 E47.0939
G1 X38.84 Y108.21 E47.1772
G1 X37.71 Y107.75 E47.2473
G1 X37.54 Y107.66 E47.2584
G1 X36.28 Y106.79 E47.3464
G1 X35.42 Y105.93 E47.4163
G1 X35.29 Y105.76 E47.4286
G1 X34.51 Y104.55 E47.5113
G1 X34.07 Y103.48 E47.5778
G1 X34.03 Y103.31 E47.5878
G1 X33.75 Y101.81 E47.6755
G1 X33.75 Y100.65 E47.7422
G1 X33.96 Y99.57 E47.8054
G1 X33.74 Y98.23 E47.8835
G1 X33.77 Y97.08 E47.9496
G1 X33.96 Y96.12 E48.0059
G1 X33.74 Y94.83 E48.0811
G1 X33.77 Y93.68 E48.1472
G1 X33.96 Y92.70 E48.2046
G1 X33.74 Y91.40 E48.2803
G1 X33.77 Y90.24 E48.3470
G1 X33.96 Y89.29 E48.4027
G1 X33.74 Y88.00 E48.4779
G1 X33.77 Y86.84 E48.5446
G1 X33.96 Y85.86 E48.6020
G1 X33.74 Y84.57 E48.6772
G1 E43.6772 F2700
G1 X33.74 Y84.57 F4200
G1 E48.6772 F2700
G1 X33.74 Y84.57 F4200
G1 X33.77 Y83.41 E48.7439 F600
G1 X33.96 Y82.45 E48.8001
G1 X33.74 Y81.16 E48.8753
G1 X33.77 Y80.00 E48.9420
G1 X34.06 Y78.58 E49.0253
G1 X34.52 Y77.45 E49.0954
G1 X34.59 Y77.31 E49.1044
G1 X35.42 Y76.07 E49.1902
G1 X36.26 Y75.21 E49.2593
G1 X36.58 Y74.96 E49.2826
G1 X37.81 Y74.19 E49.3660
G1 X38.93 Y73.76 E49.4350
G1 X40.39 Y73.48 E49.5204
G1 X41.59 Y73.47 E49.5894
G1 X41.84 Y73.52 E49.6040
G1 X41.85 Y70.95 E49.7518
G1 X41.93 Y70.38 E49.7848
G1 X42.23 Y69.34 E49.8470
G1 X42.73 Y68.41 E49.9077
G1 X42.88 Y68.21 E49.9221
G1 X43.63 Y67.45 E49.9835
G1 X44.41 Y66.96 E50.0364
G1 X45.38 Y66.57 E50.0965
G1 X46.32 Y66.41 E50.1513
G1 X46.44 Y66.40 E50.1582
G1 X52.91 Y66.40 E50.5301
G1 X53.19 Y66.04 E50.5563
G1 X54.03 Y65.27 E50.6218
G1 X55.19 Y64.52 E50.7012
G1 X56.30 Y64.05 E50.7704
G1 X56.58 Y63.98 E50.7870
G1 X58.35 Y63.69 E50.8901
G1 X58.72 Y63.69 E50.9114
G1 X60.48 Y63.97 E51.0138
G1 X61.65 Y64.39 E51.0853
G1 X62.06 Y64.60 E51.1117
G1 X63.23 Y65.39 E51.1929
